X:1
T:James Gibb editions
T:Psalm 120 (Becker) - Schütz
%%score [ ( 1 2 ) ( 3 4 ) ]
L:1/8
Q:1/4=98
M:3/2
K:F
V:1 treble nm="Soprano Alto"
V:2 treble 
V:3 bass nm="Tenor Bass"
V:4 bass 
V:1
"^Cornelius Becker\n(1561-1604)""^Psalm 120, SWV 225""^Heinrich Schütz\n(1585-1672)" c4 | %1
w: ~Ich|
 B2 c2 d4 c4 | B2 A2 G4 _E4 | G2 A2 B4 _A4 | G2 F2 _E4 G4 |[M:3/2] B2 c2 d2 c2 =B4 | c8 _e4 | %7
w: ruf zu dir, mein|Herr und Gott, ver-|laß mich nicht in|mei- ner Not, er-|hör mein sehn- lich Fle-|hen, ich|
 d2 c2 =B4 c4 | B2 A2 G4 B4 | d2 c2 =B2 _e2 d4 | c8 |] %11
w: bit- te dich, er-|ret- te mich, hilf|mei- ner ar- men See-|len.|
V:2
 _E4 | D2 F2 F4 _E4 | D2 D2 D4 C4 | _E2 F2 G4 F4 | _E2 D2 E4 E4 |[M:3/2] D2 F2 D2 G2 G4 | G8 G4 | %7
 G2 G2 G4 G4 | G2 ^F2 G4 G4 | F2 _A2 G2 G2 G4 | !courtesy!=E8 |] %11
V:3
 G,4 | G,2 A,2 B,4 G,4 | G,2 ^F,2 G,4 G,4 | C2 C2 _E4 C4 | B,2 B,2 B,4 C4 | %5
[M:3/2] B,2 A,2 B,2 _E2 D4 | C8 C4 | D2 _E2 D4 E4 | %8
 D2"^5. Es wird ja meiner Seelen lang,\ndaß ich muß leiden solchen Drang\nund bei den Leuten bleiben,\ndie leb'n in Haß\nohn Unterlaß\nund keinen Frieden leiden.\n\n6. Alles was dient zu Fried und Ruh\nmit großem Ernst ich suchen tu,\naber sobald ich rede\nvon deinem Wort,\ndie gottlos Rott\nwider mich Krieg erhebet." D2 D4 D4 | %9
 D2 F2 D2 C2 (C2 =B,2) | C8 |] %11
V:4
 C,4 | G,2 F,2 B,,4 C,4 | G,2 D,2 G,,4 C,4 | C,2 F,2 _E,4 F,4 | G,2 B,2 _E,4 C,4 | %5
[M:3/2] G,2 F,2 B,,2 C,2 G,4 | C,8 C,4 | =B,,2 C,2 G,4 C,4 | G,2 D,2 G,4 G,4 | %9
 B,2 F,2 G,2 C,2 G,4 | C,8 |] %11

